X:1
T:Title
%%score { ( 1 3 ) | ( 2 4 ) } { ( 5 7 ) | ( 6 8 9 ) }
L:1/8
Q:1/4=114
M:3/4
K:Ab
V:1 treble nm="Grand Piano"
V:3 treble 
V:2 treble 
V:4 treble 
V:5 treble nm="Grand Piano"
V:7 treble 
V:6 bass 
V:8 bass 
V:9 bass 
V:1
 z6 | z6 | z6 | z2 z2 E2 | c4 c2 | B2 c2 B2 | A6 | E4 E2 | e4 c2 | A2 B2 c2 | B6- | B2 z2 E2 | %12
 c4 c2 | d4 d2 | B6 | c4 B2 | A4 A2 | G2 A2 B2 | A6- |[M:2/4] A2 z2 |[M:1/4] e2 |[M:3/4] d4 c2 | %22
 B4 f2 | [Ae]4 [Ed]2 | [Ec]4 [A,EA]2 | [A,DF]4 [A,EG]2 | [A,A]2 e2 [Fd]2 | [Ac]6 | B4 E2 | %29
 [Ac]4 c2 | d4 d2 | B4 B2 | c4 [DFB]2 | A4 A2 | G2 A2 [DEB]2 | [CEA]6- |[M:8/4] [CEA]8 z8 | %37
[M:9/8] [FA]8- [FA] | [=EB]8- [EB] | [Ec]8- [Ec] |] %40
V:2
 z6 | z6 | z6 | z6 | E4 E2 | D2 E2 D2 | C6 | C4 C2 | c4 A2 | C2 E2 A2 | G6- | G2 z2 z2 | A4 A2 | %13
 F4 F2 | G6 | A4 F2 | E4 E2 | E4 D2 | C6- |[M:2/4] C2 z2 |[M:1/4] [CA]2 |[M:3/4] [FA]4 [EA]2 | %22
 [DA]4 [DG]2 | C4[K:bass] B,2 | A,4 C,2 | D,4 D,2 | z2 C2 [D,B,]2 | z6 | G4 E,2 | z2 z2 A2 | %30
 F4 F2 | G4 G2 | A4[K:bass] D,2 | [E,CE]4 [E,CE]2 | [E,E]4 z2 | A,,6- |[M:8/4] A,,8 z8 | %37
[M:9/8] [D,A,]8- [D,A,]- | [D,A,]8- [D,A,] | [A,,A,]8- [A,,A,] |] %40
V:3
 x6 | x6 | x6 | x6 | x6 | x6 | x6 | x6 | x6 | x6 | x6 | x6 | x6 | x6 | x6 | x6 | x6 | x6 | x6 | %19
[M:2/4] x4 |[M:1/4] x2 |[M:3/4] x6 | x6 | x6 | x6 | x6 | F4 z2 | x6 | x6 | x6 | x6 | x6 | x6 | x6 | %34
 x6 | x6 |[M:8/4] x16 |[M:9/8] x9 | x9 | x9 |] %40
V:4
 x6 | x6 | x6 | x6 | x6 | x6 | x6 | x6 | x6 | x6 | x6 | x6 | x6 | x6 | x6 | x6 | x6 | x6 | x6 | %19
[M:2/4] x4 |[M:1/4] x2 |[M:3/4] x6 | x6 | x4[K:bass] x2 | x6 | x6 | D,4 z2 | [E,E]6- | [E,E]4 z2 | %29
 A,6- | A,6- | A,6- | A,4[K:bass] z2 | x6 | B,2 C2 E,2 | x6 |[M:8/4] x16 |[M:9/8] x9 | x9 | x9 |] %40
V:5
 CE AB cd | e2 z2 d>c | B6 | [CA]4 z2 | CE Ac AE | DE GB GE | CE Ac AE | CE Ac AE | CE Ac AE | %9
 CE Ac AE | DE GB GE | DE GB GE | CE Ac AE | DF Ad AF | DE GB GE | CE cE BF | AC EA cA | DE F2 G2 | %18
 CE Ac AE |[M:2/4] [CA]2 z2 |[M:1/4] e2 |[M:3/4] d4 c2 | B4 f2 | e4 d2 | c4 A2 | [DF]4 G2 | %26
 A2 e2 d2 | [Ac]6 | B4 E2 | CE Ac AE | DF Ad AF | DE GB GE | CE cA BF | AC EA cA | DE GB GE | %35
 CE Ac AE |[M:8/4] C8 z8 |[M:9/8] [FA]8- [FA] | [=EB]8- [EB] | [CEAc]8- [CEAc] |] %40
V:6
 [A,,E,A,]2 C[K:treble]E AB | c2 z2[K:bass] [D,B,]2 | [E,G,D]6 | [A,,E,A,]4 z2 | %4
 z2 [E,A,]2 [E,A,]2 | z2 [E,G,]2 [E,G,]2 | z2 [E,A,]2 [E,A,]2 | z2 [E,A,]2 [E,A,]2 | %8
 z2 [E,A,]2 [E,A,]2 | z2 [E,A,]2 [E,A,]2 | z2 E,2 E,2 | z2 E,2 E,2 | z2 [E,A,]2 [E,A,]2 | %13
 z2 [F,A,]2 [F,A,]2 | z2 G,2 [E,G,]2 | [A,,A,]2 [C,,C,]2 [D,,D,]2 | z2 E,2 E,2 | z2 E,2 [E,D]2 | %18
 z2 [E,A,]2 [E,A,]2 |[M:2/4] [A,,E,A,]2 z2 |[M:1/4][K:treble] [CA]2 |[M:3/4] A6- | A4 z2 | %23
 z6[K:bass] | z6 | z6 | F6 | z6 | G4 z2 | z2 [E,A,]2 [E,A,]2 | z2 [F,A,]2 [F,A,]2 | %31
 z2 [E,G,]2 [E,G,]2 | [A,,E,A,]2 [C,,C,]2 [D,,D,]2 | z2 E,2 E,2 | z2 E,2 E,2 | z2 [E,A,]2 [E,A,]2 | %36
[M:8/4] [A,,E,A,]8 z8 |[M:9/8] [D,A,]8- [D,A,]- | [D,A,]8- [D,A,] | [A,,E,A,]8- [A,,E,A,] |] %40
V:7
 x6 | z2 z2 F2 | x6 | x6 | x6 | x6 | x6 | x6 | x6 | x6 | x6 | x6 | x6 | x6 | x6 | x6 | x6 | x6 | %18
 x6 |[M:2/4] x4 |[M:1/4] x2 |[M:3/4] x6 | x6 | x6 | x6 | x6 | x6 | x6 | x6 | x6 | x6 | x6 | x6 | %33
 x6 | x6 | x6 |[M:8/4] x16 |[M:9/8] x9 | x9 | x9 |] %40
V:8
 x3[K:treble] x3 | x4[K:bass] x2 | x6 | x6 | A,,6 | A,,6 | A,,6 | A,,6 | A,,6 | A,,6 | E,,6 | %11
 E,,6 | A,,6 | A,,6 | A,,6 | x6 | E,,6 | E,,6 | A,,6 |[M:2/4] x4 |[M:1/4][K:treble] x2 | %21
[M:3/4] F4 E2 | z2 z2 G2 | z2 z2[K:bass] [B,G]2 | A4 z2 | D,6- | D,6 | [E,E]6- | [E,E]4 z2 | A,,6 | %30
 A,,6 | A,,6 | x6 | E,,6 | E,,6 | A,,6 |[M:8/4] x16 |[M:9/8] x9 | x9 | x9 |] %40
V:9
 x3[K:treble] x3 | x4[K:bass] x2 | x6 | x6 | x6 | x6 | x6 | x6 | x6 | x6 | x6 | x6 | x6 | x6 | x6 | %15
 x6 | x6 | x6 | x6 |[M:2/4] x4 |[M:1/4][K:treble] x2 |[M:3/4] x6 | D6 | [CA]4[K:bass] E2- | %24
 [A,E]4- [C,A,-E]2 | A,4- [A,-E]2 | A,2 C2 B,2 | x6 | x6 | x6 | x6 | x6 | x6 | x6 | x6 | x6 | %36
[M:8/4] x16 |[M:9/8] x9 | x9 | x9 |] %40

